assets/brand/Logo.svg

<svg width="138" height="44" viewBox="0 0 138 44" fill="none" xmlns="http://www.w3.org/2000/svg">
<g clip-path="url(#clip0_5368_153987)">
<path d="M98.2471 40.9475C99.082 40.9475 99.5759 40.315 99.5759 39.3261C99.5759 38.3009 99.0457 37.7047 98.2647 37.7047C97.8181 37.7047 97.5079 37.9027 97.2758 38.2173H97.2648V36.597H96.7808V40.8573H97.2648V40.4525H97.2758C97.5266 40.7979 97.8302 40.9475 98.2471 40.9475ZM98.2119 40.5416C97.5563 40.5416 97.234 40.0235 97.234 39.3316C97.234 38.665 97.5442 38.1161 98.2174 38.1161C98.8015 38.1161 99.082 38.6408 99.082 39.3316C99.082 40.029 98.8015 40.5416 98.2119 40.5416ZM100.393 41.877C100.768 41.877 101.007 41.745 101.257 41.107L102.574 37.7762H102.062L101.358 39.6957C101.263 39.952 101.155 40.2974 101.155 40.2974H101.144C101.144 40.2974 101.03 39.952 100.935 39.6957L100.208 37.7762H99.6837L100.887 40.7682L100.768 41.0718C100.649 41.3699 100.512 41.448 100.31 41.448C100.196 41.4537 100.084 41.431 99.9818 41.382H99.9576V41.811C100.09 41.8649 100.208 41.877 100.393 41.877ZM103.81 40.8573H104.62V36.597H103.81V40.8573ZM106.603 40.9475C107.55 40.9475 108.2 40.2435 108.2 39.3316C108.2 38.4197 107.551 37.7168 106.603 37.7168C105.656 37.7168 105.005 38.4208 105.005 39.3316C105.005 40.2446 105.654 40.9475 106.603 40.9475ZM106.603 40.3271C106.102 40.3271 105.828 39.9278 105.828 39.3316C105.828 38.7365 106.102 38.3306 106.603 38.3306C107.098 38.3306 107.377 38.7365 107.377 39.3316C107.377 39.9278 107.098 40.3271 106.603 40.3271ZM109.924 41.9001C110.377 41.9001 110.769 41.7934 111.026 41.5547C111.252 41.3457 111.39 41.0542 111.39 40.6252V37.8004H110.609V38.1227H110.597C110.412 37.8664 110.133 37.7168 109.75 37.7168C108.976 37.7168 108.428 38.3009 108.428 39.2128C108.428 40.1368 109.095 40.6725 109.775 40.6725C110.162 40.6725 110.394 40.5185 110.573 40.315H110.591V40.6494C110.591 41.0663 110.371 41.2874 109.911 41.2874C109.536 41.2874 109.364 41.1378 109.298 40.9464H108.494C108.576 41.5426 109.089 41.9001 109.924 41.9001ZM109.913 40.0235C109.495 40.0235 109.22 39.7199 109.22 39.2007C109.22 38.6881 109.495 38.3669 109.906 38.3669C110.394 38.3669 110.633 38.7475 110.633 39.1952C110.633 39.6484 110.424 40.0235 109.911 40.0235H109.913ZM113.36 40.9475C114.307 40.9475 114.957 40.2435 114.957 39.3316C114.957 38.4197 114.307 37.7168 113.36 37.7168C112.412 37.7168 111.763 38.4208 111.763 39.3316C111.763 40.2446 112.412 40.9475 113.36 40.9475ZM113.36 40.3271C112.859 40.3271 112.584 39.9278 112.584 39.3316C112.584 38.7365 112.859 38.3306 113.36 38.3306C113.854 38.3306 114.134 38.7365 114.134 39.3316C114.134 39.9278 113.854 40.3271 113.36 40.3271ZM115.333 40.8573H116.144V37.8004H115.333V40.8584V40.8573ZM115.333 37.3241H116.144V36.597H115.333V37.323V37.3241ZM116.667 41.8583H117.477V40.513H117.488C117.662 40.7759 117.941 40.9486 118.37 40.9486C119.157 40.9486 119.694 40.3216 119.694 39.3327C119.694 38.379 119.176 37.7179 118.365 37.7179C118.188 37.715 118.013 37.756 117.856 37.8372C117.699 37.9184 117.565 38.0373 117.465 38.1832H117.448V37.8015H116.667V41.8605V41.8583ZM118.198 40.2743C117.715 40.2743 117.459 39.9102 117.459 39.3558C117.459 38.808 117.662 38.3724 118.168 38.3724C118.669 38.3724 118.871 38.7772 118.871 39.3558C118.871 39.9344 118.609 40.2732 118.198 40.2732V40.2743ZM121.311 40.9475C122.073 40.9475 122.598 40.5779 122.598 39.9641C122.598 39.2491 122.031 39.1061 121.519 38.9983C121.084 38.9092 120.679 38.885 120.679 38.6232C120.679 38.4032 120.887 38.2822 121.203 38.2822C121.549 38.2822 121.757 38.4032 121.794 38.7299H122.526C122.467 38.1161 122.02 37.7179 121.215 37.7179C120.518 37.7179 119.97 38.0325 119.97 38.6947C119.97 39.3613 120.506 39.5109 121.054 39.6187C121.471 39.7012 121.859 39.7309 121.859 40.0235C121.859 40.238 121.656 40.3755 121.299 40.3755C120.936 40.3755 120.685 40.2204 120.631 39.8684H119.881C119.928 40.5174 120.423 40.9464 121.311 40.9464V40.9475ZM125.676 40.8573V37.8004H124.865V39.5648C124.865 39.9696 124.632 40.2556 124.251 40.2556C123.906 40.2556 123.744 40.0587 123.744 39.7012V37.8004H122.94V39.8387C122.94 40.5064 123.322 40.9409 124 40.9409C124.429 40.9409 124.668 40.7803 124.877 40.5009H124.895V40.8573H125.676ZM126.199 40.8573H127.01V39.083C127.01 38.6771 127.23 38.4153 127.558 38.4153C127.856 38.4153 128.028 38.5946 128.028 38.94V40.8584H128.839V39.083C128.839 38.6771 129.048 38.4153 129.388 38.4153C129.686 38.4153 129.859 38.5946 129.859 38.94V40.8584H130.67V38.8025C130.67 38.1348 130.305 37.7179 129.662 37.7179C129.275 37.7179 128.952 37.9203 128.745 38.2547H128.732C128.659 38.0923 128.54 37.955 128.389 37.8596C128.239 37.7642 128.064 37.715 127.885 37.7179C127.707 37.7134 127.53 37.757 127.374 37.844C127.218 37.9311 127.088 38.0585 126.998 38.2129H126.98V37.8015H126.199V40.8595V40.8573Z" fill="#E5708C"/>
<path d="M130.829 2.36387C130.829 1.06257 131.884 0.00656895 133.185 0.00656895H134.757C135.382 0.00656895 135.982 0.254927 136.424 0.697006C136.866 1.13909 137.115 1.73867 137.115 2.36387C137.115 2.98906 136.866 3.58865 136.424 4.03073C135.982 4.47281 135.382 4.72117 134.757 4.72117H133.185C132.876 4.72117 132.569 4.66019 132.283 4.54171C131.997 4.42323 131.738 4.24958 131.519 4.03067C131.3 3.81176 131.127 3.55188 131.008 3.26589C130.89 2.97989 130.829 2.67338 130.829 2.36387ZM64.8391 15.719C64.8391 24.3958 57.8056 31.4303 49.1278 31.4303C40.451 31.4303 33.4164 24.3958 33.4164 15.719C33.4164 7.03997 40.451 0.00766895 49.1278 0.00766895C57.8056 0.00766895 64.8391 7.03997 64.8391 15.719ZM30.3518 15.6409C31.2208 15.6409 31.9314 16.3449 31.8445 17.2095C31.5476 20.1683 30.417 22.982 28.5842 25.3238C26.7515 27.6655 24.2918 29.439 21.491 30.4382C18.6902 31.4374 15.6634 31.6213 12.7623 30.9684C9.86119 30.3155 7.20493 28.8527 5.10222 26.75C2.99952 24.6473 1.53673 21.991 0.883844 19.0899C0.23096 16.1888 0.4148 13.162 1.414 10.3612C2.41319 7.56043 4.18671 5.10073 6.52844 3.26797C8.87017 1.43521 11.6839 0.304641 14.6427 0.00766895C15.5062 -0.080331 16.2113 0.632469 16.2113 1.49927V14.069C16.2113 14.938 16.9153 15.6409 17.7832 15.6409H30.3518ZM86.8357 34.573C88.0858 34.573 89.2847 35.0696 90.1687 35.9535C91.0526 36.8375 91.5492 38.0364 91.5492 39.2865C91.5492 40.5366 91.0526 41.7355 90.1687 42.6194C89.2847 43.5034 88.0858 44 86.8357 44H78.9806C77.7305 44 76.5316 43.5034 75.6477 42.6194C74.7637 41.7355 74.2671 40.5366 74.2671 39.2865C74.2671 38.0364 74.7637 36.8375 75.6477 35.9535C76.5316 35.0696 77.7305 34.573 78.9806 34.573H86.8357ZM82.1222 31.4303C90.8001 31.4303 97.8346 24.3958 97.8346 15.719C97.8384 13.0536 97.161 10.4315 95.8667 8.10147L98.4627 5.50547C98.7618 5.20631 98.9989 4.85117 99.1607 4.46035C99.3225 4.06953 99.4057 3.65067 99.4056 3.22769C99.4055 2.80471 99.3221 2.38589 99.1601 1.99515C98.9982 1.60441 98.7608 1.24939 98.4616 0.950369C98.1625 0.651349 97.8074 0.414182 97.4165 0.252409C97.0257 0.0906356 96.6068 0.00742463 96.1839 0.00752678C95.7609 0.00762893 95.3421 0.0910422 94.9513 0.253004C94.5606 0.414966 94.2056 0.652305 93.9065 0.951469L91.6405 3.21747C88.9068 1.12957 85.561 0.00103394 82.1211 0.00656895C73.4454 0.00766895 66.412 7.03997 66.412 15.719C66.412 24.3958 73.4465 31.4303 82.1234 31.4303H82.1222ZM130.829 15.719C130.829 24.3958 123.795 31.4303 115.117 31.4303C106.44 31.4303 99.4054 24.3958 99.4054 15.719C99.4054 7.03997 106.44 0.00766895 115.117 0.00766895C123.795 0.00766895 130.829 7.04107 130.829 15.719Z" fill="url(#paint0_linear_5368_153987)"/>
</g>
<defs>
<linearGradient id="paint0_linear_5368_153987" x1="0.500046" y1="17.6" x2="131.4" y2="17.6" gradientUnits="userSpaceOnUse">
<stop stop-color="#64C2DB"/>
<stop offset="0.307" stop-color="#7476ED"/>
<stop offset="0.604" stop-color="#C994DF"/>
<stop offset="1" stop-color="#E56F8C"/>
</linearGradient>
<clipPath id="clip0_5368_153987">
<rect width="137.5" height="44" fill="white" transform="translate(0.5)"/>
</clipPath>
</defs>
</svg>

<svg viewBox="0 0 138 44" fill="none" xmlns="http://www.w3.org/2000/svg">
    <g clip-path="url(#prefix__clip0_5368_153987)">
        <path
            d="M98.247 40.947c.835 0 1.329-.632 1.329-1.62 0-1.026-.53-1.622-1.311-1.622-.447 0-.757.198-.99.512h-.01v-1.62h-.484v4.26h.484v-.404h.01c.252.345.555.494.972.494zm-.035-.405c-.656 0-.978-.519-.978-1.21 0-.667.31-1.216.983-1.216.585 0 .865.525.865 1.216 0 .697-.28 1.21-.87 1.21zm2.181 1.335c.375 0 .614-.132.864-.77l1.317-3.33h-.512l-.704 1.919c-.095.256-.203.601-.203.601h-.011s-.114-.345-.209-.601l-.727-1.92h-.524l1.203 2.992-.119.304c-.119.298-.256.376-.458.376a.678.678 0 01-.328-.066h-.024v.429c.132.054.25.066.435.066zm3.417-1.02h.81v-4.26h-.81v4.26zm2.793.09c.947 0 1.597-.704 1.597-1.615 0-.912-.649-1.615-1.597-1.615-.947 0-1.598.704-1.598 1.615 0 .913.649 1.615 1.598 1.615zm0-.62c-.501 0-.775-.4-.775-.995 0-.596.274-1.001.775-1.001.495 0 .774.405.774 1 0 .597-.279.996-.774.996zm3.321 1.573c.453 0 .845-.107 1.102-.345.226-.21.364-.5.364-.93V37.8h-.781v.323h-.012c-.185-.257-.464-.406-.847-.406-.774 0-1.322.584-1.322 1.496 0 .924.667 1.46 1.347 1.46a.985.985 0 00.798-.358h.018v.334c0 .417-.22.638-.68.638-.375 0-.547-.15-.613-.34h-.804c.082.596.595.953 1.43.953zm-.011-1.877c-.418 0-.693-.303-.693-.822 0-.513.275-.834.686-.834.488 0 .727.38.727.828 0 .453-.209.828-.722.828h.002zm3.447.924c.947 0 1.597-.704 1.597-1.615 0-.912-.65-1.615-1.597-1.615-.948 0-1.597.704-1.597 1.615 0 .913.649 1.615 1.597 1.615zm0-.62c-.501 0-.776-.4-.776-.995 0-.596.275-1.001.776-1.001.494 0 .774.405.774 1 0 .597-.28.996-.774.996zm1.973.53h.811V37.8h-.811v3.058zm0-3.533h.811v-.727h-.811v.727zm1.334 4.534h.81v-1.345h.011c.174.263.453.436.882.436.787 0 1.324-.627 1.324-1.616 0-.954-.518-1.615-1.329-1.615a1.07 1.07 0 00-.9.465h-.017v-.382h-.781v4.06-.003zm1.531-1.584c-.483 0-.739-.364-.739-.918 0-.548.203-.984.709-.984.501 0 .703.405.703.984 0 .578-.262.917-.673.917v.001zm3.113.673c.762 0 1.287-.37 1.287-.983 0-.715-.567-.858-1.079-.966-.435-.089-.84-.113-.84-.375 0-.22.208-.34.524-.34.346 0 .554.12.591.447h.732c-.059-.614-.506-1.012-1.311-1.012-.697 0-1.245.314-1.245.977 0 .666.536.816 1.084.924.417.082.805.112.805.404 0 .215-.203.352-.56.352-.363 0-.614-.155-.668-.507h-.75c.047.65.542 1.078 1.43 1.078v.002zm4.365-.09V37.8h-.811v1.765c0 .405-.233.69-.614.69-.345 0-.507-.196-.507-.554v-1.9h-.804v2.038c0 .667.382 1.102 1.06 1.102.429 0 .668-.16.877-.44h.018v.356h.781zm.523 0h.811v-1.774c0-.406.22-.668.548-.668.298 0 .47.18.47.525v1.918h.811v-1.775c0-.406.209-.668.549-.668.298 0 .471.18.471.525v1.918h.811v-2.055c0-.668-.365-1.085-1.008-1.085-.387 0-.71.202-.917.537h-.013a.907.907 0 00-.847-.537.999.999 0 00-.887.495h-.018V37.8h-.781v3.058-.002z"
            fill="#E5708C" />
        <path
            d="M130.829 2.364a2.357 2.357 0 012.356-2.357h1.572a2.358 2.358 0 010 4.714h-1.572a2.359 2.359 0 01-2.356-2.357zm-65.99 13.355c0 8.677-7.033 15.711-15.711 15.711-8.677 0-15.712-7.034-15.712-15.711C33.416 7.04 40.451.008 49.128.008c8.678 0 15.711 7.032 15.711 15.711zm-34.487-.078c.869 0 1.58.704 1.492 1.568A15.71 15.71 0 1114.643.008c.863-.088 1.568.624 1.568 1.491v12.57c0 .869.704 1.572 1.572 1.572h12.569zm56.484 18.932a4.714 4.714 0 010 9.427H78.98a4.713 4.713 0 110-9.427h7.855zm-4.714-3.143c8.678 0 15.713-7.034 15.713-15.711a15.64 15.64 0 00-1.968-7.618l2.596-2.596A3.22 3.22 0 1093.907.951L91.64 3.217a15.642 15.642 0 00-9.52-3.21c-8.676 0-15.709 7.033-15.709 15.712 0 8.677 7.034 15.711 15.711 15.711zM130.83 15.72c0 8.677-7.034 15.711-15.712 15.711-8.677 0-15.712-7.034-15.712-15.711 0-8.679 7.035-15.711 15.712-15.711 8.678 0 15.712 7.033 15.712 15.711z"
            fill="url(#prefix__paint0_linear_5368_153987)" />
    </g>
    <defs>
        <linearGradient id="prefix__paint0_linear_5368_153987" x1=".5" y1="17.6" x2="131.4" y2="17.6"
            gradientUnits="userSpaceOnUse">
            <stop stop-color="#64C2DB" />
            <stop offset=".307" stop-color="#7476ED" />
            <stop offset=".604" stop-color="#C994DF" />
            <stop offset="1" stop-color="#E56F8C" />
        </linearGradient>
        <clipPath id="prefix__clip0_5368_153987">
            <path fill="#fff" transform="translate(.5)" d="M0 0h137.5v44H0z" />
        </clipPath>
    </defs>
</svg>
